!!!COM: Bach, Johann Sebastian
!!!CDT: 1685/3//-1750/7/28/
!!!OTL@@DE: Wie schoen leuchtet der Morgenstern
!!!OTL@EN: How bright appears the morning star
!!!AGN: 4-Part Chorale
!!!SCT: BH 323
!!!SCT: BWV 172
**harm	**root	**kern	**kern	**kern	**kern
!	!	!bass	!tenor	!alto	!soprno
*	*Iorgan	*Iorgan	*Iorgan	*Iorgan	*Iorgan
*M4/4	*M4/4	*M4/4	*M4/4	*M4/4	*M4/4
*met(c)	*met(c)	*met(c)	*met(c)	*met(c)	*met(c)
*MM56	*MM56	*MM56	*MM56	*MM56	*MM56
*k[b-]	*k[b-]	*k[b-]	*k[b-]	*k[b-]	*k[b-]
*F:	*F:	*F:	*F:	*F:	*F:
*>[A,A,B]	*>[A,A,B]	*>[A,A,B]	*>[A,A,B]	*>[A,A,B]	*>[A,A,B]
*>A	*>A	*>A	*>A	*>A	*>A
I	4FF	4F	4A	4c	4f
=1	=1	=1	=1	=1	=1
Vb	4CC	4E	4G	4c	8cc
.	.	.	.	.	8b-
I	8FF	8F	8F	4c	8a
Vb	8CC	8E	8G	.	8g
vi	4DD	4D	8A	8d	4f
.	.	.	8B-	8e	.
Ib	4FF	4AA	4c	4f	4cc
=2	=2	=2	=2	=2	=2
IV	4BB-	8BB-	8c	4f	4dd
.	.	8C	16B-	.	.
.	.	.	16A	.	.
IVb	4BB-	8D	8B-	4f	4dd
.	.	8E	8B-	.	.
I;	4FF;	4F;	4A;	4f;	4cc;
Vb	4CC	4E	4c	4g	4cc
=3	=3	=3	=3	=3	=3
vib	4DD	4F	4c	4a	4dd
v/iii	4EE	4G	4Bn	4g	4ee
Ib	8FF	8A	8c	8f	4ff
V7b/V	8GG	8Bn	8d	8g	.
V	8CC	8c	8e	4g	4ee
Vb	8CC	8E	8G	.	.
=4	=4	=4	=4	=4	=4
vib	4DD	8F	8A	4f	4dd
.	.	8D	8d	.	.
V7/V	4GG	4G	4Bn	4f	4dd
V;	4CC;	4C;	4c;	4e;	4cc;
I	4FF	4F	4c	4f	4a
=5	=5	=5	=5	=5	=5
IV	4BB-	4BB-	8B-	4f	4dd
.	.	.	8A	.	.
V	4CC	4C	4G	4e	4cc
IVb	8BB-	8D	8d	8f	4b-
V7b	8CC	8E	8c	8g	.
I	4FF	8F	4c	4f	4a
.	.	8BB-	.	.	.
=6	=6	=6	=6	=6	=6
V	2CC	2C	2c	4f	2g
.	.	.	.	4e	.
I;	4FF;	4FF;	4c;	4f;	4f;
=:|!	=:|!	=:|!	=:|!	=:|!	=:|!
*>B	*>B	*>B	*>B	*>B	*>B
r	4r	4r	4r	4r	4r
=7	=7	=7	=7	=7	=7
Vb	2CC	2E	2c	2g	2cc
I;	2FF;	2F;	2c;	2a;	2a;
=8	=8	=8	=8	=8	=8
V	2CC	2C	2c	2g	2cc
I;	2FF;	2FF;	2c;	2f;	2a;
!!linebreak: 2
=9	=9	=9	=9	=9	=9
I	4FF	8FF	4c	4f	4a
.	.	8GG	.	.	.
Ib	4FF	8AA	4c	4f	4a
.	.	8BB-	.	.	.
V	4CC	8C	4c	8e	4g
.	.	8D	.	8d	.
Vb	4CC	8E	8c	4c	4g
.	.	8C	8B-	.	.
=10	=10	=10	=10	=10	=10
I	4FF	8F	8A	4c	4a
.	.	8G	8B-	.	.
Ib	4FF	8A	4c	8c	4a
.	.	8B-	.	8d	.
V	4CC	8c	4c	4e	4g
.	.	8B-	.	.	.
Vc	4CC	8A	4c	4e	4g
.	.	8G	.	.	.
=11	=11	=11	=11	=11	=11
I	4FF	8F	4c	4f	4a
.	.	8E	.	.	.
vi	4DD	8D	4d	4f	4a
.	.	8C	.	.	.
ii7b	4GG	8BB-	4d	4f	2g
.	.	8GG	.	.	.
V	4CC	4C	8c	4e	.
.	.	.	8B-	.	.
=12	=12	=12	=12	=12	=12
I;	2FF;	2FF;	2A;	2f;	2f;
vi	4DD	8DD	8d	4a	4ff
.	.	8FF	8c	.	.
viiob	4EE	8GG	4B-	4g	4ee
.	.	8AA	.	.	.
=13	=13	=13	=13	=13	=13
IV	4BB-	4BB-	8B-	4f	4dd
.	.	.	8A	.	.
V	4CC	4C	4G	4e	4cc
IVb	4BB-	8D	8F	4d	4b-
.	.	8E	8G	.	.
I	8FF	8F	8A	4c	4a
Ib	8FF	8AA	8c	.	.
=14	=14	=14	=14	=14	=14
iib	4GG	8BB-	8.B-	4d	2g
.	.	8GG	.	.	.
.	.	.	16A	.	.
V	4CC	4C	4G	4c	.
I;	4FF;	4FF;	4A;	4c;	4f;
==	==	==	==	==	==
*-	*-	*-	*-	*-	*-
!!chor2scor: -l 2 -o %b.pmx
!!!YEC: Copyright 1994, David Huron
!!!YEC: Changes/Additions 2001 by Craig Stuart Sapp
!!!YEN: United States of America
!!!SMA: 371 Bach Chorales, edited by Ludwig Erk, C.F. Peters
!!!PDT: 1850, 1865
!!!ONB: Harmony and Root analysis done manually
